!!!!SEGMENT: pl-sa--552-a-ix-32--016_anonim--coda.krn
!!!cenid: 18xx:527
!!!COM: Anonim
!!!COM-rismid: pe30004985
!!!CDT:
!!!CNT:
!!!OTL: Coda
!!!PDT:
!!!AGN: Secular
!!!SMS-siglum: PL-SA
!!!SMS-shelfmark: 552/A IX 32
!!!SMS-shelfwork: 016 W
!!!SMS-variant:
!!!SMS-altvar:
!!!NIFC-rismid: 1001069529
!!!URL-scan: http://bc.bdsandomierz.pl/dlibra/publication/1308/edition/1276/content
!!!ONB-nifc: Str. 9, s. 1-2
**kern	**kern	**dynam
*part1	*part1	*part1
*staff2	*staff1	*
*I"Piano	*	*
*I'P-no	*	*
*clefF4	*clefG2	*
*k[e-b-]	*k[e-b-]	*
*>[A,B,B,C,C,D]	*>[A,B,B,C,C,D]	*
=1	=1	=1
*>A	*>A	*>A
!LO:SIC:v:n=2:s=4B-;n=3:s=4d	!	!
!LO:TX:a:t=P:problem:brak metrum	!LO:TX:a:t=P:problem:brak metrum	!
4f 4d 4G\	16bb-\LL	ff
.	16ddd\JJ	.
.	4bb-\	.
8d 8B- 8G\	.	.
=2	=2	=2
4c 4G 4E-\	16ccc\LL	.
.	16eee-\JJ	.
.	4ccc\	.
8c 8G 8E-\	.	.
=3	=3	=3
!LO:N:vis=8.	!	!
4.e- 4.c 4.F\	16bb-\LL	.
.	16aa\	.
.	16gg\	.
.	16ff\	.
.	16gg\	.
.	16aa\JJ	.
=4	=4	=4
4d 4B-\	16bb-\LL	.
.	16ccc\	.
.	16ddd\	.
.	16eee-\J	.
8r	8fff\J	.
=5	=5	=5
4d 4B- 4G\	16bb-\LL	.
.	16ddd\JJ	.
.	4bb-\	.
8d 8B- 8G\	.	.
=6	=6	=6
4c 4G 4E-\	16ccc\LL	.
.	16eee-\JJ	.
.	4ccc\	.
8c 8G 8E-\	.	.
=7	=7	=7
4.e- 4.c 4.F\	16bb-\LL	.
.	16aa\	.
.	16gg\	.
.	16ff\	.
.	16gg\	.
.	16aa\JJ	.
=8!|:	=8!|:	=8!|:
*>B	*>B	*>B
4d 4B-\	16bb-\LL	.
.	16ff\	.
.	16bb-\	.
.	16ddd\	.
8e- 8c 8F\	16ccc\	.
.	16aa\JJ	.
=9:|!|:	=9:|!|:	=9:|!|:
*>C	*>C	*>C
8dL 8B-\	16bb-\LL	.
.	16ff\	.
8d 8B-\	16bb-\	.
.	16ddd\	.
8e-J 8c 8F\	16ccc\	.
.	16aa\JJ	.
=10:|!	=10:|!	=10:|!
*>D	*>D	*>D
4d 4B-\	8bb-\L	.
.	16ddd\L	.
.	16bb-\J	.
8r	8ff\J	.
=11	=11	=11
4d 4B-\	8ff\L	.
.	16bb-\L	.
.	16ff\J	.
8r	8dd\J	.
=12	=12	=12
8B-\L	8b-\L	ff
16d\L	16dd\L	.
16B-\J	16b-\J	.
8F\J	8f\J	.
=13	=13	=13
8F\L	8f/L	.
16B-\L	16b-/L	.
16F\J	16f/J	.
8D\J	8d/J	.
=14	=14	=14
8BB-\L	8B-/L	.
8D\	8d/	.
8F\J	8f/J	.
=15	=15	=15
8B-\L	8b-\L	.
8F\	8dd\	.
8D\J	8ff\J	.
=16	=16	=16
4BB-/	4bb-\	.
8r	8r	.
!!LO:LB:g=original
=17	=17	=17
4.BB- 4.BBB-/	4.bb- 4.ff 4.dd 4.b- 4.g\	.
=18	=18	=18
4.BB- 4.BBB-;/	4.b- 4.f 4.d;/	.
==	==	==
*-	*-	*-
!!!system-decoration: {s1,s2}
!!!ENC: Marta Lawrence
!!!END: 2020-12-12
!!!ENC: Marcin Jachim
!!!END: 2020-06-18
